icons/KoraCustom/apps/scalable/org.kde.plasma.appmenu.svg

<svg xmlns="http://www.w3.org/2000/svg" width="48" height="48" version="1">
 <rect style="opacity:0.2" width="25" height="30" x="7" y="14"/>
 <rect style="fill:#4d565b" width="25" height="30" x="7" y="13"/>
 <rect style="fill:#e4e4e4" width="8" height="2" x="9" y="15"/>
 <path style="opacity:0.2" d="M 6.2851562,6 C 5.0188705,6 4,7.0180134 4,8.2851562 V 11 13.714844 C 4,14.981987 5.0188705,16 6.2851562,16 H 12 36 41.714844 C 42.98113,16 44,14.981987 44,13.714844 V 11 8.2851562 C 44,7.0180134 42.98113,6 41.714844,6 H 36 12 Z"/>
 <path style="fill:#636e73" d="M 6.2851562,5 C 5.0188705,5 4,6.0180134 4,7.2851562 V 10 12.714844 C 4,13.981987 5.0188705,15 6.2851562,15 H 12 36 41.714844 C 42.98113,15 44,13.981987 44,12.714844 V 10 7.2851562 C 44,6.0180134 42.98113,5 41.714844,5 H 36 12 Z"/>
 <path style="opacity:0.2" d="m 27,8 v 1 1 1 1 1 h 3 v -1 h -2 v -1 h 2 V 10 H 28 V 9 h 2 V 8 Z m 4,0 v 1 3 1 h 2 V 12 H 32 V 9 h 1 V 8 h -1 z m 2,1 v 3 h 1 V 9 Z m 2,-1 v 5 h 1 V 8 Z m 2,0 v 1 h 1 v 4 h 1 V 9 h 1 V 8 h -1 -1 z"/>
 <path style="fill:#e4e4e4" d="m 27,7 v 1 1 1 1 1 h 3 v -1 h -2 v -1 h 2 V 9 H 28 V 8 h 2 V 7 Z m 4,0 v 1 3 1 h 2 V 11 H 32 V 8 h 1 V 7 h -1 z m 2,1 v 3 h 1 V 8 Z m 2,-1 v 5 h 1 V 7 Z m 2,0 v 1 h 1 v 4 h 1 V 8 h 1 V 7 h -1 -1 z"/>
 <rect style="opacity:0.2" width="25" height="6" x="7" y="19" rx="1" ry="1.2"/>
 <rect style="fill:#e4e4e4" width="4" height="2" x="9" y="21"/>
 <rect style="fill:#e4e4e4" width="6" height="2" x="9" y="27"/>
 <path style="fill:#e4e4e4" d="M 9 33 L 9 35 L 14 35 L 22 35 L 22 33 L 14 33 L 9 33 z"/>
 <path style="opacity:0.2" d="m 18.572411,21.000184 c 0.132437,0.0031 0.259428,0.05187 0.358258,0.137637 l 8.537564,6.735175 c 0.354379,0.307059 0.177654,0.876712 -0.292262,0.942077 l -3.310512,0.46369 1.55155,2.665883 c 0.346727,0.595843 0.141279,1.353067 -0.45927,1.697076 l -0.332667,0.191089 c -0.600547,0.344011 -1.363749,0.140172 -1.710476,-0.455672 L 21.303785,30.608364 18.94279,32.50722 c -0.363475,0.293338 -0.914044,0.04235 -0.914498,-0.416921 L 18.000002,21.54405 c -8.97e-4,-0.30569 0.258072,-0.55173 0.572406,-0.543866 z"/>
 <path style="fill:#00caff" d="m 18.572411,20.000184 c 0.132437,0.0031 0.259428,0.05187 0.358258,0.137637 l 8.537564,6.735175 c 0.354379,0.307059 0.177654,0.876712 -0.292262,0.942077 l -3.310512,0.46369 1.55155,2.665883 c 0.346727,0.595843 0.141279,1.353067 -0.45927,1.697076 l -0.332667,0.191089 c -0.600547,0.344011 -1.363749,0.140172 -1.710476,-0.455672 L 21.303785,29.608364 18.94279,31.50722 c -0.363475,0.293338 -0.914044,0.04235 -0.914498,-0.416921 L 18.000002,20.54405 c -8.97e-4,-0.30569 0.258072,-0.55173 0.572406,-0.543866 z"/>
 <path style="opacity:0.2" d="m 8,8 v 1 1 1 2 h 1 v -2 h 2 V 10 H 9 V 9 h 2 V 8 Z m 4,0 v 1 4 h 1 V 9 8 Z m 2,0 v 4 1 h 3 V 12 H 15 V 8 Z m 4,0 v 1 1 1 1 1 h 3 v -1 h -2 v -1 h 2 V 10 H 19 V 9 h 2 V 8 Z"/>
 <path style="fill:#00caff" d="m 8,7 v 1 1 1 2 h 1 v -2 h 2 V 9 H 9 V 8 h 2 V 7 Z m 4,0 v 1 4 h 1 V 8 7 Z m 2,0 v 4 1 h 3 V 11 H 15 V 7 Z m 4,0 v 1 1 1 1 1 h 3 v -1 h -2 v -1 h 2 V 9 H 19 V 8 h 2 V 7 Z"/>
 <path style="fill:#ffffff;opacity:0.1" d="M 6.2851562 5 C 5.0188705 5 4 6.0180134 4 7.2851562 L 4 8.2851562 C 4 7.0180135 5.0188705 6 6.2851562 6 L 12 6 L 36 6 L 41.714844 6 C 42.98113 6 44 7.0180135 44 8.2851562 L 44 7.2851562 C 44 6.0180134 42.98113 5 41.714844 5 L 36 5 L 12 5 L 6.2851562 5 z"/>
 <rect style="fill:#e4e4e4" width="15" height="1" x="7" y="13"/>
 <rect style="fill:#00caff" width="15" height="1" x="7" y="13"/>
 <rect style="opacity:0.2" width="15" height="1" x="7" y="14"/>
</svg>

<svg clip-rule="evenodd" fill-rule="evenodd" stroke-linejoin="round" stroke-miterlimit="2" viewBox="0 0 48 48" xmlns="http://www.w3.org/2000/svg">
 <linearGradient id="a" x2="1" gradientTransform="matrix(0 -36.2165 36.2165 0 573.921 42.119)" gradientUnits="userSpaceOnUse">
  <stop stop-color="#566069" offset="0"/>
  <stop stop-color="#6c7884" offset="1"/>
 </linearGradient>
 <linearGradient id="b" x2="1" gradientTransform="matrix(-.30178 -32.3809 32.3809 -.30178 4749.49 -3.96934)" gradientUnits="userSpaceOnUse">
  <stop stop-color="#ccc" offset="0"/>
  <stop stop-color="#f5f2f5" offset="1"/>
 </linearGradient>
 <path transform="matrix(1 0 0 -1 0 48)" d="m39.44 2.332c3.438 0 6.228 2.79 6.228 6.228v30.88c0 3.438-2.79 6.228-6.228 6.228h-30.88c-3.438 0-6.228-2.79-6.228-6.228v-30.88c0-3.438 2.79-6.228 6.228-6.228z" fill="url(#a)"/>
 <path transform="matrix(1 0 0 -1 0 48)" d="m45.668 38.226v1.214c0 3.438-2.79 6.228-6.228 6.228h-30.88c-3.438 0-6.228-2.79-6.228-6.228v-1.214z" fill="url(#b)" fill-rule="nonzero"/>
 <path transform="translate(-.297767 4.28784)" d="m9 33v2h13v-2zm6-6h-6v2h6zm-2-6h-4v2h4zm4-6h-8v2h8z" fill="#e4e4e4"/>
 <path d="m6.702233 17.28784h15v1h-15z" fill="#00caff"/>
 <g transform="translate(-.297767 4.28784)" fill-rule="nonzero">
  <path d="m18.572 20c.133.003.26.052.359.138l8.537 6.735c.355.307.178.877-.292.942l-3.311.464 1.552 2.666c.347.595.141 1.353-.459 1.697l-.333.191c-.6.344-1.364.14-1.71-.456l-1.611-2.769-2.361 1.899c-.364.294-.914.043-.915-.417l-.028-10.546c-.001-.306.258-.552.572-.544z" fill="#00caff"/>
  <path d="m27 7v5h3v-1h-2v-1h2v-1h-2v-1h2v-1zm4 0v5h2v-1h-1v-3h1v-1zm2 1v3h1v-3zm2-1v5h1v-5zm2 0v1h1v4h1v-4h1v-1z" fill="#e4e4e4"/>
  <path d="m8 7v5h1v-2h2v-1h-2v-1h2v-1zm4 0v5h1v-5zm2 0v5h3v-1h-2v-4zm4 0v5h3v-1h-2v-1h2v-1h-2v-1h2v-1z" fill="#00caff"/>
 </g>
</svg>
